X:1
T: Apples in Winter
T: 2nd setting
R:Reel
I:speed 232
Q:232
K:G
M:4/4
L:1/8
|:d2d2 ef ge|de d^c d2B2|cd cB c2A2|BcBA B2G2|
d2d2 ef ge|de d^c d2B2|cd cB c2A2|G2B2 G4:|
|:A2FD B2GD|cd cB A2A2|B2GD c2AF|de dc B2B2|
^c2c2 ef ge|fg fe d2d2|ef ed ^cA Bc|1d^c de d=c BA:|2d2f2 d4||
